images/farms/bch-bnb.svg

<svg width="186" height="171" viewBox="0 0 186 171" fill="none" xmlns="http://www.w3.org/2000/svg">
<path d="M67.045 119.028C63.8667 131.172 82.0449 146.449 107.647 153.149C133.25 159.849 156.581 155.436 159.759 143.291C162.937 131.146 144.759 115.87 119.157 109.169C93.5546 102.469 70.2233 106.883 67.045 119.028Z" fill="#606063"/>
<path d="M155.924 149.273L171.346 132.988L61.9922 104.369L67.7128 126.187L155.924 149.273Z" fill="#606063"/>
<path d="M68.9337 108.293L27.0725 97.338C25.258 96.8632 23.4126 97.9924 23.0096 99.8242L22.5414 101.953C21.6084 106.194 24.1195 110.433 28.2875 111.653L70.0994 123.892L68.9337 108.293Z" fill="#606063"/>
<path d="M62.2026 98.7096C58.5089 112.824 80.5267 130.811 111.381 138.886C142.235 146.96 170.241 142.064 173.935 127.95C177.629 113.836 155.611 95.8488 124.757 87.7742C93.9028 79.6996 65.8963 84.5955 62.2026 98.7096Z" fill="url(#paint0_linear)"/>
<path fill-rule="evenodd" clip-rule="evenodd" d="M146.673 123.286C153.771 128.506 157.919 134.152 158.538 139.157L161.516 138.789C160.744 132.551 155.779 126.258 148.45 120.869C141.061 115.434 131.011 110.721 119.537 107.718C108.063 104.716 96.9927 103.901 87.888 105.019C78.8593 106.128 71.4479 109.182 67.7196 114.242L70.1348 116.021C73.1263 111.961 79.5082 109.071 88.2536 107.997C96.9231 106.933 107.608 107.698 118.777 110.621C129.946 113.544 139.636 118.111 146.673 123.286Z" fill="#606063"/>
<path fill-rule="evenodd" clip-rule="evenodd" d="M75.7343 118.739C67.0136 111.615 63.7365 104.698 65.1049 99.4692C66.4733 94.2403 72.7186 89.8155 83.8112 87.8763C94.6178 85.9872 108.889 86.7226 123.997 90.6764C139.105 94.6302 151.908 100.98 160.403 107.921C169.124 115.045 172.401 121.962 171.033 127.191C169.664 132.42 163.419 136.844 152.326 138.784C141.52 140.673 127.248 139.937 112.14 135.984C97.0323 132.03 84.2301 125.68 75.7343 118.739ZM111.381 138.886C80.5267 130.811 58.5089 112.824 62.2026 98.7096C65.8963 84.5955 93.9028 79.6996 124.757 87.7742C155.611 95.8488 177.629 113.836 173.935 127.95C170.241 142.064 142.235 146.96 111.381 138.886Z" fill="#979797"/>
<path fill-rule="evenodd" clip-rule="evenodd" d="M64.1673 124.049L59.2305 104.926L62.1352 104.176L67.0721 123.299L64.1673 124.049Z" fill="url(#paint1_linear)"/>
<path fill-rule="evenodd" clip-rule="evenodd" d="M62.4691 106.189C62.4241 106.041 62.3812 105.893 62.3406 105.746C62.2656 105.473 62.1983 105.2 62.1386 104.929L61.997 104.389C61.9948 104.38 62.0025 104.372 62.0109 104.375C62.019 104.377 62.0266 104.37 62.0251 104.362C62.0236 104.353 62.0222 104.345 62.0207 104.337C61.9732 104.072 61.9333 103.807 61.9009 103.543C61.8931 103.479 61.8857 103.416 61.8788 103.352C61.8065 102.689 61.7824 102.031 61.8078 101.378C61.8079 101.378 61.8079 101.378 61.8079 101.377C61.8432 100.475 61.9734 99.5849 62.2025 98.7095C65.8962 84.5954 93.9027 79.6994 124.757 87.774C155.611 95.8486 177.629 113.836 173.935 127.95C173.706 128.826 173.383 129.666 172.972 130.469C172.972 130.469 172.972 130.47 172.972 130.47C172.528 131.338 171.981 132.163 171.337 132.945C171.332 132.951 171.326 132.958 171.321 132.964C171.319 132.967 171.318 132.969 171.318 132.972C171.318 132.977 171.322 132.982 171.327 132.983C171.332 132.984 171.335 132.989 171.336 132.993C171.336 132.996 171.335 133 171.333 133.002L170.725 133.644C170.655 133.72 170.584 133.795 170.511 133.87L169.275 135.175L169.273 135.177L157.793 147.299C150.986 156.33 130.197 159.051 107.647 153.149C85.3446 147.312 68.6757 134.967 66.8505 123.854C66.7571 123.285 66.3667 122.8 65.8135 122.639L29.1271 111.91C24.9834 110.698 22.4722 106.499 23.3648 102.275L23.8239 100.103C24.2137 98.2581 26.0655 97.1133 27.8898 97.589L62.1386 106.52C62.3391 106.573 62.5217 106.39 62.4691 106.189ZM58.8119 102.553C58.7482 101.009 58.9029 99.4681 59.3002 97.9499C61.6255 89.0648 71.2303 83.9845 82.7779 81.9658C94.6114 79.8971 109.77 80.751 125.516 84.8718C141.262 88.9926 154.896 95.6738 164.199 103.274C173.277 110.691 179.162 119.825 176.837 128.71C176.28 130.839 175.285 132.774 173.936 134.499C173.821 134.697 173.679 134.887 173.511 135.065L172.923 135.686C172.92 135.689 172.916 135.693 172.913 135.697C172.836 135.779 172.759 135.861 172.68 135.943C172.677 135.946 172.673 135.95 172.67 135.953L160.082 149.246C155.911 154.652 148.056 157.706 138.984 158.802C129.684 159.926 118.467 159.082 106.888 156.051C95.4351 153.054 85.3397 148.366 77.8095 142.91C70.73 137.78 65.4882 131.648 64.0667 125.253L28.285 114.789C22.6362 113.137 19.2128 107.413 20.4296 101.655L20.8887 99.4823C21.6325 95.9628 25.166 93.7783 28.6468 94.6861L58.8119 102.553Z" fill="url(#paint2_linear)"/>
<circle cx="76" cy="29" r="29" fill="#F0B90B"/>
<path d="M65.1846 28.9998L60.7476 33.4676L56.2798 28.9998L60.7476 24.532L65.1846 28.9998ZM75.9998 18.1846L83.6413 25.8261L88.1091 21.3583L80.4676 13.7476L75.9998 9.27979L71.532 13.7476L63.9213 21.3583L68.3891 25.8261L75.9998 18.1846ZM91.252 24.532L86.815 28.9998L91.2828 33.4676L95.7198 28.9998L91.252 24.532ZM75.9998 39.815L68.3583 32.1735L63.9213 36.6413L71.5628 44.2828L75.9998 48.7198L80.4676 44.252L88.1091 36.6105L83.6413 32.1735L75.9998 39.815ZM75.9998 33.4676L80.4676 28.9998L75.9998 24.532L71.532 28.9998L75.9998 33.4676Z" fill="#FFFDFA"/>
<g style="mix-blend-mode:multiply" opacity="0.1">
<circle cx="76" cy="29" r="27.5" stroke="#191326" stroke-width="3"/>
</g>
<circle cx="125.5" cy="72.5" r="43.5" fill="#FFFDFA"/>
<path d="M130.684 65.8247C131.455 64.7725 131.806 63.4397 131.455 62.1069C130.964 60.4233 129.491 59.3711 127.807 59.0203C125.07 58.389 121.842 59.7218 119.176 60.3531C119.878 63.0889 120.579 65.8247 121.281 68.6307C121.351 68.771 121.421 69.6829 121.562 69.7531C121.842 69.9635 123.526 69.262 123.877 69.1919C126.403 68.5605 129.07 68.0695 130.684 65.8247Z" fill="#51BA1F"/>
<path d="M137.428 75.6982C137.147 74.2953 136.095 73.243 134.832 72.6117C132.867 71.6998 130.621 71.7699 128.516 72.3311C127.394 72.6117 126.271 72.8923 125.219 73.1729C124.868 73.243 123.043 73.4535 122.903 73.8042C122.833 73.9445 123.184 74.7863 123.184 74.9266C123.394 75.6982 123.605 76.4699 123.815 77.3117C124.306 79.0654 124.727 80.8892 125.219 82.643C125.289 82.8534 125.359 83.7653 125.569 83.9758C125.78 84.1862 127.253 83.625 127.534 83.5549C129.92 82.9236 132.656 82.5027 134.761 81.0997C136.375 79.837 137.849 77.8729 137.428 75.6982Z" fill="#51BA1F"/>
<path d="M169 72.5478C169 63.5688 166.193 54.73 161.001 47.3644C155.949 40.2092 148.721 34.6675 140.512 31.6511C131.951 28.4944 122.408 28.1437 113.637 30.669C105.217 33.0541 97.5689 38.0346 91.9555 44.8391C86.2719 51.7136 82.8337 60.2718 82.132 69.1105C81.4303 78.1597 83.5353 87.279 88.2366 94.9954C92.7274 102.501 99.5337 108.534 107.463 112.112C115.742 115.9 125.215 116.952 134.126 115.128C142.757 113.374 150.756 108.955 156.861 102.571C162.966 96.1879 167.105 87.9805 168.439 79.2119C168.86 77.0373 169 74.7925 169 72.5478ZM145.634 80.194C144.582 82.7895 142.476 84.894 140.091 86.2268C139.319 86.6477 138.407 87.0686 137.565 87.3492C137.214 87.4894 136.793 87.5596 136.442 87.6999C136.091 87.77 135.179 87.8402 134.898 88.1208C134.618 88.4014 135.039 89.3835 135.179 89.8044C135.46 90.9267 135.74 92.0491 136.021 93.1715C136.161 93.6625 136.302 94.2237 136.442 94.7148C136.512 94.9252 136.723 95.4864 136.723 95.6968C136.653 96.0476 136.863 95.767 136.512 95.9774C136.161 96.1879 135.46 96.258 135.109 96.3282C134.126 96.6088 133.144 96.8192 132.162 97.0998C131.6 94.9252 131.039 92.8208 130.478 90.6461C130.408 90.3655 130.337 89.6641 130.197 89.5238C130.057 89.3133 129.987 89.4536 129.636 89.5238C128.583 89.8044 127.531 90.085 126.408 90.3655C126.969 92.5402 127.531 94.7148 128.092 96.8894C128.162 97.0998 128.443 97.8013 128.373 98.0118C128.303 98.1521 128.092 98.152 127.811 98.2222C126.619 98.5028 125.285 99.1341 124.092 99.2043C123.742 99.2043 123.882 99.3446 123.742 99.1341C123.531 98.9237 123.461 98.152 123.391 97.8715C123.04 96.5386 122.689 95.1357 122.338 93.8028C122.268 93.4521 122.058 91.7685 121.777 91.5581C121.496 91.4178 119.812 92.0491 119.532 92.1193C117.076 92.7506 114.69 93.3819 112.234 94.0133C112.164 92.3999 112.094 90.8566 112.094 89.2432C112.094 88.8223 111.953 88.3312 112.234 88.1208C112.445 87.9805 113.006 87.9103 113.287 87.8402C113.778 87.6999 114.269 87.5596 114.83 87.4193C115.813 87.2089 116.725 86.788 116.655 85.5954C116.655 85.3148 116.514 85.1044 116.514 84.8238C116.234 83.6313 115.883 82.3686 115.602 81.1761C114.62 77.2477 113.567 73.3896 112.585 69.4612C112.234 68.1284 111.883 66.7254 111.532 65.3926C111.182 64.1299 110.761 62.8673 109.217 62.727C108.375 62.6568 107.392 63.0777 106.55 63.2882C106.2 63.3583 104.796 63.9195 104.516 63.7792C104.375 63.6389 104.305 63.0076 104.235 62.7971C104.095 62.2359 103.954 61.7449 103.814 61.1837C103.603 60.4121 103.393 59.6404 103.253 58.9389C105.779 58.3076 108.305 57.6061 110.901 56.9748C111.322 56.8345 112.725 56.6942 112.795 56.3434C112.866 56.0628 112.515 55.1509 112.445 54.8703C112.234 54.0987 112.024 53.2569 111.813 52.4853C111.462 51.2226 111.182 49.9599 110.831 48.6972C111.462 48.5569 112.094 48.3465 112.655 48.2062C113.357 47.9957 114.479 47.5047 115.181 47.5749C115.532 47.5749 115.462 47.7151 115.602 48.2062C115.813 49.048 116.023 49.8898 116.234 50.7315C116.514 51.7136 116.725 52.6957 117.005 53.6076C117.076 53.8882 117.216 55.0808 117.426 55.2211C117.637 55.3614 118.83 54.8703 119.111 54.8002C119.812 54.6599 120.444 54.4494 121.145 54.3091C120.514 51.7136 119.812 49.1181 119.181 46.5928C120.514 46.242 121.917 45.8913 123.25 45.5405C123.671 45.4002 123.671 45.3301 123.882 45.6107C124.163 45.9614 124.233 46.9435 124.373 47.3644C124.794 49.048 125.215 50.6614 125.636 52.345C125.706 52.6256 125.706 53.0464 125.917 53.1166C126.127 53.1867 126.969 52.836 127.11 52.836C127.952 52.6256 128.864 52.5554 129.706 52.5554C134.828 52.5554 140.021 55.9927 139.74 61.6046C139.67 63.7792 138.547 65.8135 137.074 67.3568C141.284 67.918 145.073 70.5836 146.055 74.8627C146.406 76.6164 146.336 78.4403 145.634 80.194Z" fill="#51BA1F"/>
<g style="mix-blend-mode:multiply" opacity="0.2">
<circle cx="125.5" cy="72.5" r="42.0815" stroke="#191326" stroke-width="2.83696"/>
</g>
<defs>
<linearGradient id="paint0_linear" x1="124.757" y1="87.7742" x2="111.381" y2="138.886" gradientUnits="userSpaceOnUse">
<stop stop-color="#404042"/>
<stop offset="1" stop-color="#48484B"/>
</linearGradient>
<linearGradient id="paint1_linear" x1="65.5673" y1="105.096" x2="60.7353" y2="123.129" gradientUnits="userSpaceOnUse">
<stop stop-color="#404042"/>
<stop offset="1" stop-color="#48484B"/>
</linearGradient>
<linearGradient id="paint2_linear" x1="92.4948" y1="80.1687" x2="108.09" y2="164.62" gradientUnits="userSpaceOnUse">
<stop stop-color="#404042"/>
<stop offset="1" stop-color="#48484B"/>
</linearGradient>
</defs>
</svg>

<svg xmlns="http://www.w3.org/2000/svg" xmlns:v="https://vecta.io/nano" width="186" height="171" fill="none"><g fill="#606063"><path d="M67.045 119.028c-3.178 12.144 15 27.421 40.602 34.121s48.934 2.287 52.112-9.858-15-27.421-40.602-34.122-48.934-2.286-52.112 9.859z"/><path d="M155.924 149.273l15.422-16.285-109.354-28.619 5.721 21.818 88.211 23.086z"/><path d="M68.934 108.293L27.073 97.338c-1.815-.475-3.66.654-4.063 2.486l-.468 2.129a8.26 8.26 0 0 0 5.746 9.7l41.812 12.239-1.166-15.599z"/></g><path fill="url(#A)" d="M62.203 98.71c-3.694 14.114 18.324 32.101 49.178 40.176s58.86 3.178 62.554-10.936-18.324-32.101-49.178-40.176-58.861-3.179-62.554 10.935z"/><g fill-rule="evenodd"><path fill="#606063" d="M146.673 123.286c7.098 5.22 11.246 10.866 11.865 15.871l2.978-.368c-.772-6.238-5.737-12.531-13.066-17.92-7.389-5.435-17.439-10.148-28.913-13.151s-22.544-3.817-31.649-2.699c-9.029 1.109-16.44 4.163-20.168 9.223l2.415 1.779c2.992-4.06 9.373-6.95 18.119-8.024 8.67-1.064 19.354-.299 30.523 2.624s20.859 7.49 27.896 12.665z"/><path fill="#979797" d="M75.734 118.739c-8.721-7.124-11.998-14.041-10.629-19.27s7.614-9.654 18.706-11.593c10.807-1.889 25.078-1.154 40.186 2.8s27.911 10.304 36.406 17.245c8.721 7.124 11.998 14.041 10.63 19.27s-7.614 9.653-18.707 11.593c-10.806 1.889-25.078 1.153-40.186-2.8s-27.91-10.304-36.406-17.245zm35.647 20.147c-30.854-8.075-52.872-26.062-49.178-40.176s31.7-19.01 62.554-10.935 52.872 26.062 49.178 40.176-31.7 19.01-62.554 10.936z"/><path fill="url(#B)" d="M64.167 124.049l-4.937-19.123 2.905-.75 4.937 19.123-2.905.75z"/><path fill="url(#C)" d="M62.469 106.189l-.128-.443-.202-.817-.142-.54c.022-.012.03-.019.028-.027l-.004-.025-.12-.794-.022-.191c-.072-.663-.096-1.321-.071-1.974.035-.903.166-1.793.395-2.668 3.694-14.114 31.7-19.01 62.555-10.936s52.872 26.062 49.178 40.176a12.4 12.4 0 0 1-.963 2.519 13.7 13.7 0 0 1-1.635 2.476l-.016.019c.011.02.014.025.015.029l-.611.651-12.932 13.655c-6.807 9.031-27.596 11.752-50.146 5.85-22.302-5.837-38.971-18.182-40.797-29.295-.093-.569-.484-1.054-1.037-1.215L29.127 111.91a8.26 8.26 0 0 1-5.762-9.635l.459-2.172c.39-1.845 2.242-2.99 4.066-2.514l34.249 8.931a.27.27 0 0 0 .331-.331zm-3.657-3.636c-.064-1.544.091-3.085.488-4.603 2.325-8.885 11.93-13.965 23.478-15.984 11.834-2.069 26.992-1.215 42.738 2.906s29.38 10.802 38.683 18.402c9.078 7.417 14.963 16.551 12.638 25.436-.557 2.129-1.552 4.064-2.901 5.789a3.08 3.08 0 0 1-.425.566l-13.429 14.181c-4.171 5.406-12.026 8.46-21.098 9.556-9.3 1.124-20.517.28-32.096-2.751-11.453-2.997-21.548-7.685-29.079-13.141-7.079-5.13-12.321-11.262-13.743-17.657l-35.782-10.464a11.26 11.26 0 0 1-7.855-13.134l.459-2.173c.744-3.519 4.277-5.704 7.758-4.796l30.165 7.867z"/></g><circle cx="76" cy="29" r="29" fill="#f0b90b"/><path fill="#fffdfa" d="M65.185 29l-4.437 4.468L56.28 29l4.468-4.468L65.185 29zM76 18.185l7.642 7.642 4.468-4.468-7.641-7.611L76 9.28 63.921 21.358l4.468 4.468L76 18.185zm15.252 6.347L86.815 29l4.468 4.468L95.72 29l-4.468-4.468zM76 39.815l-7.641-7.642-4.437 4.468L76 48.72l12.109-12.109-4.468-4.437L76 39.815zm0-6.347L80.468 29 76 24.532 71.532 29 76 33.468z"/><circle cx="76" cy="29" r="27.5" stroke="#191326" stroke-width="3" opacity=".1" style="mix-blend-mode:multiply"/><circle cx="125.5" cy="72.5" r="43.5" fill="#fffdfa"/><path fill="#51ba1f" d="M130.684 65.825c.771-1.052 1.122-2.385.771-3.718-.491-1.684-1.964-2.736-3.648-3.087-2.737-.631-5.965.702-8.631 1.333l2.105 8.278c.07.14.14 1.052.281 1.122.28.21 1.964-.491 2.315-.561 2.526-.631 5.193-1.122 6.807-3.367zm6.744 9.873c-.281-1.403-1.333-2.455-2.596-3.087-1.965-.912-4.211-.842-6.316-.281l-3.297.842c-.351.07-2.176.281-2.316.631-.07.14.281.982.281 1.122l.631 2.385 1.404 5.331c.07.21.14 1.122.35 1.333s1.684-.351 1.965-.421c2.386-.631 5.122-1.052 7.227-2.455 1.614-1.263 3.088-3.227 2.667-5.401zM169 72.548c0-8.979-2.807-17.818-7.999-25.183a43.67 43.67 0 0 0-20.489-15.713 43.47 43.47 0 0 0-26.875-.982c-8.42 2.385-16.068 7.366-21.681 14.17-5.684 6.874-9.122 15.433-9.823 24.271-.702 9.049 1.403 18.168 6.105 25.885 4.491 7.506 11.297 13.539 19.226 17.117 8.279 3.788 17.752 4.84 26.663 3.016 8.631-1.754 16.63-6.173 22.735-12.557s10.244-14.59 11.578-23.359c.421-2.175.561-4.419.561-6.664zm-23.366 7.646c-1.052 2.596-3.158 4.7-5.543 6.033-.772.421-1.684.842-2.526 1.122-.351.14-.772.21-1.123.351-.351.07-1.263.14-1.544.421s.141 1.263.281 1.684l.842 3.367.421 1.543c.07.21.281.772.281.982-.07.351.14.07-.211.281s-1.052.281-1.403.351c-.983.281-1.965.491-2.947.772l-1.684-6.454c-.07-.281-.141-.982-.281-1.122-.14-.21-.21-.07-.561 0l-3.228.842 1.684 6.524c.07.21.351.912.281 1.122-.07.14-.281.14-.562.21-1.192.281-2.526.912-3.719.982-.35 0-.21.14-.35-.07-.211-.21-.281-.982-.351-1.263l-1.053-4.069c-.07-.351-.28-2.034-.561-2.245-.281-.14-1.965.491-2.245.561l-7.298 1.894-.14-4.77c0-.421-.141-.912.14-1.122.211-.14.772-.21 1.053-.281l1.543-.421c.983-.21 1.895-.631 1.825-1.824 0-.281-.141-.491-.141-.772-.28-1.193-.631-2.455-.912-3.648l-4.07-15.784c-.35-1.263-.771-2.525-2.315-2.666-.842-.07-1.825.351-2.667.561-.35.07-1.754.631-2.034.491-.141-.14-.211-.772-.281-.982l-.421-1.613c-.211-.772-.421-1.543-.561-2.245l7.648-1.964c.421-.14 1.824-.281 1.894-.631.071-.281-.28-1.193-.35-1.473l-.632-2.385c-.351-1.263-.631-2.525-.982-3.788.631-.14 1.263-.351 1.824-.491.702-.211 1.824-.702 2.526-.631.351 0 .281.14.421.631l.632 2.525c.28.982.491 1.964.771 2.876.071.281.211 1.473.421 1.614s1.404-.351 1.685-.421c.701-.14 1.333-.351 2.034-.491l-1.964-7.716 4.069-1.052c.421-.14.421-.21.632.07.281.351.351 1.333.491 1.754l1.263 4.981c.07.281.07.701.281.772s1.052-.281 1.193-.281c.842-.21 1.754-.281 2.596-.281 5.122 0 10.315 3.437 10.034 9.049-.07 2.175-1.193 4.209-2.666 5.752 4.21.561 7.999 3.227 8.981 7.506.351 1.754.281 3.578-.421 5.331z"/><circle cx="125.5" cy="72.5" r="42.082" stroke="#191326" stroke-width="2.837" opacity=".2" style="mix-blend-mode:multiply"/><defs><linearGradient id="A" x1="124.757" x2="111.381" y1="87.774" y2="138.886" gradientUnits="userSpaceOnUse"><stop stop-color="#404042"/><stop offset="1" stop-color="#48484b"/></linearGradient><linearGradient id="B" x1="65.567" x2="60.735" y1="105.096" y2="123.129" gradientUnits="userSpaceOnUse"><stop stop-color="#404042"/><stop offset="1" stop-color="#48484b"/></linearGradient><linearGradient id="C" x1="92.495" x2="108.09" y1="80.169" y2="164.62" gradientUnits="userSpaceOnUse"><stop stop-color="#404042"/><stop offset="1" stop-color="#48484b"/></linearGradient></defs></svg>
